X:1
T:Title
%%score 1 2 3
L:1/8
M:3/2
K:C
V:1 treble-8 nm="Part_1"
V:2 bass nm="Part_2"
V:3 bass nm="Part_3"
V:1
 z12 | z12 |[M:6/2] z12 z12 |[M:3/2] z12 |[M:2/2] z8 | z8 | z8 | z8 | z2 z G d2 GG | d2 G2 c>B A2 | %10
w: ||||||||Quid cla- mas quid|cla- mas fi- * *|
 G2 z G cc/A/eE | AAA>^F G2 GG/A/ | B2 EE G3 F/E/ | D2 D2 G4 |[M:4/8] z4 |[M:2/2] z8 | z8 | %17
w: i? cur plo- ras pec- ca- *|tor quid fac- tum est a- ni- mæ|tu- æ di lec- * *|* te mi?||||
[M:3/2] z12 |[M:2/2] z8 |[M:3/2] z12 |[M:2/2] z8 |[M:3/2] z4 z2 A2 d>ddB |[M:2/2] cc/B/ A2 G4 | %23
w: ||||ne ti- me- as a|fa- ci- e e- ius|
 c2 A2 G2 G2 | E/^F/G/E/FF G2 c/B/c/A/ |[M:3/2] Bc d2 G4 z4 |[M:4/8] z4 |[M:3/2] z12 |[M:4/8] z4 | %29
w: qui- a e- go|te- * * * * cum sum au- di tan- tum|vo- cem me- am||||
[M:4/4] (6:2:5c4 c4 A4 G8 G4 |[M:2/4] (6:2:3G4 G4 E4 |[M:4/8] D2 DG |[M:2/2] A2 ^F>F F2 _BB | %33
w: e- go ro- ga- bo|e- go ro-|ga- bo pro|te fi- li- um tu Ma|
 _B2 B d2 cBd/c/ | _B/A/G/F/ c2 F2 B2 | _B3 G d2 D2 | (6:2:2G12 z12 | z8 | z8 |[M:2/2] z2 A4 ^F2 | %40
w: i- am in- vo- ca ad- vo-|ca- tam in- ter- pel- la fi-|li di- lec- te|mi|||par- ce|
[M:3/2] G>^F E2 D2 d3 dBG | c2 A2 G4 z4 |[M:2/2] z8 | z8 | z2 z E/E/ EEA>A | DD/D/DD G>G C/c/c/B/ | %46
w: fi- * * li a- ni- mæ quæ-|ren- ti te|||Et mise- * ri- cor- di-|am * etmise- * ri- cor- di- am mise- * ri-|
 cc/d/GA B2 E2 | z8 | z8 | z8 |[M:2/2] z8 | z8 | z8 | z8 | z8 | z8 | z4 z2 B2 | B3 A A2 G2 | %58
w: or- di- am de- po- scen- ti||||||||||nil|ca- ni- tur su-|
 G2 ^F2 G2 G2 | A3 A B2 d2 | d2 ^c2 d4 | z4 z2 B2 | A3 A G d2 c |[M:3/2] BA/G<AA/ B2 z d2 cBA/G/ | %64
w: a- vi- us nil|ca- ni- tur su-|a- vi- us|su-|a- vi- us nil au-|di- tur iu- cun- di us nil au- di- tur- iu-|
[M:2/2] A>A B2 z4 | z2 B2 B2 A2 | ^FG A4 G2 | (6:2:2A12 z12 | (6:2:5z4 z4 A4 ^F8 G4 | %69
w: cun- di- us|nil co- gi-|ta- tur dul- ci-|us|quam Ie- sus|
 (6:2:4E8 F4 D8 G4 | (6:2:5C8 z4 z4 z4 G4 | (6:2:4E8 F4 D8 E4 | (6:2:4D8 D4 G8 E4 | %73
w: De- i fi- li-|us quam|e- sus De- i|i- li- us quam|
[M:6/4] (6:2:2A8 D4 z8/3 (6:2:4G4 ^F4 G6 F2 |[M:4/4] G8 |] %75
w: Ie- sus i fi- * li-|us|
V:2
 G,4 E,4 A,>G,F,>E, | D,2 C,2 G,2 G,,2 C,4 |[M:6/2] C,4 C,4 B,,4 A,,8 G,,4 | %3
w: He- u he- * * *|* u mi- * hi|Suc- cur- re quæ- so|
[M:3/2] C,4 C,2 E,2 D,4 |[M:2/2] G,,2 C,D, E,2 E,2 | E,^F, G,2 G,F, A,2 | D,2 B,,C, D,2 D,2 | %7
w: a- ni- * mæme-|æ Vir- go pi- a|sanc- ta Ma- ter Ma- ri-|a Vir- go pi- a|
 D,E, ^F,2 G,E, D,2 | G,,4 z4 | z8 | z8 | z8 | z8 | z8 |[M:4/8] G,3/2 F,/G,/F,/E,/D,/ | %15
w: Sanc- ta Ma- ter Ma- ri-|a||||||ve- * * * * *|
[M:2/2] C,2 C,2 F,E, A,2 | G,C,D,E, F,D,C,G,, |[M:3/2] A,,B,,C,A,, G,,2 C,3 E,D,D, | %18
w: * nit i- ni- mi-|cus et sup- plan- ta- vit et sup-|plan- ta- * vit me i- de- o in|
[M:2/2] G,G,/^F,/A,A, D,G,>G,E, |[M:3/2] F,2 C,2 D,3 D, B,,2 C,2 |[M:2/2] A,,4 G,,2 G,E, | %21
w: sta- bi- lis fac- ta est a- ni- ma|me- a ce- ci- dit in|ma- num de qua|
[M:3/2] A,/^G,/A,/F,<E,E,/ A,,4 z4 |[M:2/2] z8 | z8 | z8 |[M:3/2] z4 z2 G,>F, E,F, D,2 | %26
w: sur- ge- re non po te- ro||||lo- que- re Ma- ri-|
[M:4/8] C,F,/E,/D,/C,/B,,/A,,/ |[M:3/2] G,,2 C,2 F,2 E,2 F,/D,/E,/C,/ G,2 |[M:4/8] C,4 | %29
w: a af- flic- to- rum con- so-|la- trix ec- ce au- di ser- vus tu-|us|
[M:4/4] z8 |[M:2/4] z4 |[M:4/8] z4 |[M:2/2] z8 | z8 | z8 | z8 | (6:2:5z4 z4 G,4 C,8 C,4 | %37
w: |||||||Ma- ri- a|
 (6:2:5D,6 E,2 ^F,4 G,8 G,4 | (6:2:4A,6 G,2 F,4 E,12 |[M:2/2] A,,4 z4 |[M:3/2] z12 | %41
w: dul- cis et pi- a|dul- cis et pi-|a||
 z4 z2 G,3 G, E,2 |[M:2/2] E,2 ^C,C, D,B,, A,,2 | G,,2 G,>E, F,D,E, D,/C,/ | B,,2 E,2 z4 | z8 | %46
w: E- sto mi-|hi sem- per ad- vo- ca-|ta sem- per ad- vo- ca- * *|* ta||
 z8 | (6:2:5A,8 ^F,4 G,4 G,4 E,4 | (6:2:7F,8 D,4 E,2 D,2 E,2 F,2 G,4 | (6:2:5C,12 F,4 D,2 D,2 E,4 | %50
w: |tu Ma- ri- a es|ad- vo ca- * * * *|ta- Chri- sti- a- no-|
[M:2/2] A,,4 F,3 F, | F,2 _B,2 G,2 F,F, | D,C, G,2 C,2 F,F, | F,2 F,D,/E,/ F,D,A,A,,/B,,/ | %54
w: rum Glo- ri|a et ho- nor sit|ti- bi fi- li ec- ce|e- nim e- xau- di- sti me e- xau-|
 C,A,, E,2 ^C,C,C,D, | B,,2 A,,2 D,B,,C,C,/A,,/ | G,,/A,,/B,,/C,/ D,2 G,,2 G,2 | E,3 ^C, D,2 B,,2 | %58
w: di- sti me ex- to- la- mus|er- go am- bo vo- cem di-|cen- * * * * tes nil|ca- ni- tur su-|
 A,,3 A,, G,,4 | z8 | z4 z2 D,2 | E,3 E, ^F,2 G,2 | G,2 ^F,2 G,4 | %63
w: a- vi- us||nil|ca- ni- tur su-|a- vi- us|
[M:3/2] z2 D,>C, B,,A,,/G,,<D,D,/ G,,4 |[M:2/2] z2 G,>F, E,D,/C,<G,G,/ | C,2 G,2 E,2 ^C,2 | %66
w: nil au- di- tur iu- cun- di- us|nil au- di- tur iu- cun- di-|us nil co- gi-|
 D,2 D,2 B,,3 B,, | (6:2:4A,,8 A,4 ^F,8 G,4 | (6:2:4E,8 F,4 D,8 G,,4 | (6:2:5C,8 z4 z4 z4 G,4 | %70
w: ta- tur dul- ci-|us quam Ie- sus|De- i fi- li-|us quam|
 (6:2:4C,8 F,4 D,8 E,4 | (6:2:4C,8 A,,4 B,,8 z4 | (6:2:5z4 z4 D,4 B,,8 C,4 | %73
w: Ie- sus De- i|fi- li- us|quam Ie- sus|
[M:6/4] (6:2:2A,,8 B,,4 z2 (6:2:5A,,2 B,,2 C,2 D,8 D,4 |[M:4/4] G,,8 |] %75
w: De- i * * * * li-|us|
V:3
 G,4 E,4 A,>G,F,>E, | D,2 C,2 G,,4 C,4 |[M:6/2] C,4 C,4 B,,4 A,,8 G,,4 |[M:3/2] C,4 C,2 E,2 D,4 | %4
[M:2/2] G,,2 C,D, E,2 E,2 | E,^F, G,2 G,F, A,2 | D,2 B,,C, D,2 D,2 | D,E, ^F,2 G,E, D,2 | %8
 G,,3[K:treble-8] G d2 GG | d2 G2 c>B A2 | G2 z Gcc/A/eE | AAA>^F G2 GG/A/ | B2 EE G3 F/E/ | %13
 D4 G4 |[M:4/8][K:bass] G,>F,G,/F,/E,/D,/ |[M:2/2] C,2 C,2 F,E, A,2 | G,C,D,E, F,D,C,G,, | %17
[M:3/2] A,,B,,C,A,, G,,2 C,3 E,D,D, |[M:2/2] G,G,/^F,/A,A, D,G,>G,E, | %19
[M:3/2] F,2 C,2 D,3 D, B,,2 C,2 |[M:2/2] A,,4 G,,2 G,E, | %21
[M:3/2] A,/^G,/A,/F,/ E,>E, A,,2[K:treble-8] A2 d>ddB |[M:2/2] cc/B/ A2 G4 | c2 A2 G2 G2 | %24
 E/^F/G/E/ FF G2 c/B/c/A/ |[M:3/2] Bc d2 G2[K:bass] G,>F,E,F, D,2 |[M:4/8] C,F,/E,/D,/C,/B,,/A,,/ | %27
[M:3/2] G,,2 C,2 F,2 E,2 F,/D,/E,/C,/ G,2 |[M:4/8] C,4 |[M:4/4][K:treble-8] (6:2:5c4 c4 A4 G8 G4 | %30
[M:2/4] (6:2:3G4 G4 E4 |[M:4/8] D2 DG |[M:2/2] A2 ^F>F F2 _BB | _B2 B d2 cBd/c/ | %34
 _B/A/G/F/ c2 F2 B2 | _B3 G d2 D2 | (6:2:4G8 G4 C8 C4 | (6:2:5D6 E2 ^F4 G8 G4 | %38
 (6:2:4A6 G2 F4 E12 |[M:2/2] A,2[K:treble-8] A4 ^F2 |[M:3/2] G>^F E2 D2 d3 dBG | %41
 c2 A2 G2[K:bass] G,3 G, E,2 |[M:2/2] E,2 ^C,C,D,B,, A,,2 | G,,2 G,>E,F,D,E,D,/C,/ | %44
 B,,2[K:treble-8] EE/E/EEA>A | DD/D/ DDG>G C/c/c/B/ | cc/d/GA B2 E2 | (6:2:5A8 ^F4 G4 G4 E4 | %48
 (6:2:7F8 D4 E2 D2 E2 F2 G4 | (6:2:5C12 F4 D2 D2 E4 |[M:2/2] A,4 F3 F | F2 _B2 G2 FF | %52
 DC G2 C2 FF | F2 FD/E/FDA A,/B,/ | CA, E2 ^CCCD | B,2 A,2 DB,CC/A,/ | G,/A,/B,/C/ D2 G,2 G2 | %57
 E3 ^C D2 B,2 | A,3 A, G,2 G,2 | D3 D G,2 G,2 | A,4 D2 D2 | E3 E ^F2 G2 | D4 G, G,2 A, | %63
[M:3/2] G,2 D>C B,A,/G,/ D>D G,4 |[M:2/2] D>DG>F ED/C<GG/ | C2 G2 E2 ^C2 | D2 D2 B,3 B, | %67
 (6:2:4A,8 A4 ^F8 G4 | (6:2:4E8 F4 D8 G,4 | (6:2:4C8 F4 D8 G4 | (6:2:4C8 F4 D8 E4 | %71
 (6:2:4C8 A,4 B,8 C4 | (6:2:4D8 D4 B,8 C4 |[M:6/4] (6:2:2A,8 B,4 z2 (6:2:5A,2 B,2 C2 D8 D4 | %74
[M:4/4] G,8 |] %75

